app/dist/common/images/jost-werke-ag.svg

<svg fill="none" height="18" viewBox="0 0 18 18" width="18" xmlns="http://www.w3.org/2000/svg"><path d="m0 0h18v18h-18z" fill="#f0f3fa"/><g clip-rule="evenodd" fill-rule="evenodd"><path d="m2 11h14v1h-14z" fill="#ee8615"/><path d="m4 7h-1v2h-1v1h1 1v-1z" fill="#003c8a"/><path d="m8 7h-3v3h3zm-1 1h-1v1.02857h1z" fill="#003c8a"/><path d="m10 8v.20833h2v.29167.29167.20833 1h-1-2v-1h2v-.20833h-2v-.29167-.29167-1.20833h1 4 1 1v1h-1v2h-1v-2z" fill="#003c8a"/></g></svg>

<!-- by TradingView --><svg width="18" height="18" viewBox="0 0 18 18" fill="none" xmlns="http://www.w3.org/2000/svg">
<rect width="18" height="18" fill="#F0F3FA"/>
<path fill-rule="evenodd" clip-rule="evenodd" d="M2 11H16V12H2V11Z" fill="#EE8615"/>
<path fill-rule="evenodd" clip-rule="evenodd" d="M4 7H3V9H2V10H3H4V9V7Z" fill="#003C8A"/>
<path fill-rule="evenodd" clip-rule="evenodd" d="M8 7H5V10H8V7ZM7 8H6V9.02857H7V8Z" fill="#003C8A"/>
<path fill-rule="evenodd" clip-rule="evenodd" d="M10 8V8.20833H12V8.5V8.79167V9V10H11H9V9H11V8.79167H9V8.5V8.20833V7H10H14H15H16V8L15 8V10H14V8L10 8Z" fill="#003C8A"/>
</svg>
